X: 20525
T: John McColl's
R: reel
M: 4/4
K: Amixolydian
|:A/A/A cA e2 cA|dBcA BGGB|A/A/A cA e2 cA|1 dBed cAAB:|2 dBed cAAg||
afge fded|Bdgd BGGg|afge fded|ceae cAAg|
afge fded|Bdgd BGGB|AcBd cedf|ecdB cAAB||

